X: 292
T: I'm Sadly Thinking   #2
R: air, waltz
%S: s:1 b:10
B: O'Neill's 1850 #292
O: F.O'Neill
Z: 1997 by John Chambers <jc@trillian.mit.edu>
Q: "Slow and plaintive"
M: 3/4
L: 1/8
K: F
"^A"[|] (c/B/) AG | F2 ^ FG AA | {c}B2 AB cc |1 c2 (Bc) (AF) | G3 :|2 f2 (AB/G/) FE | "^fine"F3 \
"^B"|| G AA |_e2 (d=e) fc | c2 (BA) (BA) | G2 (ec) (BA) | "^->A2"G3 |]
